X: 1
T: Timour the Tartar
T: Peter Street
N:
N: H&C p.111; Skye p.6; Hunter 257 (a 6-part arrangement); in O'Neill's p.119;
N: BSFC I-63, III-20, VIII-4; Kennedy p.17; Phillips p.49 from Topic 12T280;
N: J.S.Skinner(); Gathering of Clans p.47; Nelson Collection p.9; Allan's p.19
D: Winston Scotty Fitzgerald on Celtic 44, Fiddlers Five CD 1
Z: John Chambers <jc@trillian.mit.edu>
M: 4/4
L: 1/8
K: A
|: E2 \
| "A"A2 (3cBA eA (3cBA | eAaA gAfA | eA (3cBA eA (3cBA | "E7"BEdE cEBE |
| "A"A2 (3cBA eA (3cBA | eAaA gAfA | efec eaec | "E7"BABc "A"A2 :|
|: (3AGF \
| "E7"E2 (3GFE BE (3GFE | BEdE cEBE | "A"A2 (3cBA eA (3cBA | eAaA gAfA |
| "A"efec "D"agaf | "A"efec "D"agaf | "A"ecag "D"fedc | "E7"BABc "A"A2 :|
